X:3
T:In Continental Mood
C:Andy Cutting
R:Mazurka (or waltz)
Z:Steve Mansfield
Z:chords added by Moshe Braner
M:3/4
L:1/8
Q:1/4=150
K:G
ga |\
"G"b2 bb ab |    g2 gb ab | "(Em)"g2 gb ab |     ga ba gf |
"C"e2 ee fg | "G"d2 dd fg |    "C"c2 ce fg | "D7"a2 aa ga |
"G"b2 bb ab |    g2 gb ab | "(Em)"g2 gb ab |     ga ba gf |
"C"e2 ee fg | "G"d2 de fg |   "D7"a2 ba gf |  "G"g3 dBA   ||
"G"G2 BG Bd | "Bm"F2 BF Bd | "Em"E2 GE GB | "D7"AA BA GF |
"G"G2 BG Bd | "Bm"F2 BF Bd | "Em"E2 GE GB | "D7"A4    GA |
"B7"B2 _eB _ef| "Em"ga gf ef | "D"d2 fd fa | "B7"bc' ba gf |
"C"e2 ee fg | "G"d2 de fg |   "D7"a2 ba gf | "G"g4 ||
<end>
<start>
